X:20
T:Vinnie Kilduff's                                                                                  
K:D                                                                                                 
M:6/8                                                                                               
L:1/8                                                                                               
ABc dAF|GEE E B2|Ace ged|cdc BcB|\                                                                  
ABc dAF|GEE E B2|Ace ged|cBc d3 :|                                                                  
faf fdc|B2 gge c|A gfg ec|Ace bag|\                                                                 
faf fdc|B2 gge c|A2 ce bag|fdc d3 :|
